img/icons/ico-social-fb.svg

<svg xmlns="http://www.w3.org/2000/svg" width="18" height="39">
    <path fill-rule="evenodd" d="M3.982 38.986h7.99V19.497h5.331l.706-6.715h-6.037l.009-3.362c0-1.752.166-2.69 2.659-2.69h3.332V.012H12.64c-6.404 0-8.658 3.259-8.658 8.738v4.032H-.01v6.715h3.992v19.489z"/>
</svg>

<svg xmlns="http://www.w3.org/2000/svg" xmlns:xlink="http://www.w3.org/1999/xlink" preserveAspectRatio="xMidYMid" width="18" height="39" viewBox="0 0 18 39">
  <defs>
    <style>
      .cls-1 {
        fill: #000;
        fill-rule: evenodd;
      }
    </style>
  </defs>
  <path d="M3.982,38.987 L11.972,38.987 L11.972,19.496 L17.303,19.496 L18.009,12.781 L11.972,12.781 L11.981,9.420 C11.981,7.669 12.147,6.730 14.640,6.730 L17.972,6.730 L17.972,0.011 L12.640,0.011 C6.236,0.011 3.982,3.271 3.982,8.750 L3.982,12.781 L-0.010,12.781 L-0.010,19.496 L3.982,19.496 L3.982,38.987 Z" class="cls-1"/>
</svg>
